X:1070
T:Mazzinghi's Fancy.
M:2/4
L:1/8
Q:1/4=104
P:ABACA % Aird uses a da capo
N:odd upbeat in the last part left as is
Z:Jack Campin * www.campin.me.uk * 2009
K:G
P:A
   B2B2|{c}BA/G/ AB/c/|dcBA |{c}BA/B/    GD|B2B2|{c}BA/G/ AB/c/|dcBA |G2G2:|
P:B
   g2dB|   e2    cA   |FDEF |   G/F/G/B/ AD|g2dB|   e2    cA   |FDEF |G2G2:|
P:C
d2|Bded|   Ad````ed   |Bge^c|   d/e/f/g/ ad|Bded|   Ad````ed   |Bge^c|d2D2:|

